X:1
T:Title
%%score { 1 | 2 }
L:1/8
Q:1/4=100
M:4/4
K:C
V:1 treble nm="Grand Piano"
V:2 bass 
V:1
 [EG]2 [EG]>[EG] [Ec]3 [EG] | [EG]2 [DF]2 [CE]2 [EG]2 | G2 FE [B,D][CE][DF][EG] | %3
w: William~B.~Bradbury * * * *|||
[M:11/8] [CE]-[CE]-[CE]-[CE]-[CE]-[CE]- [CE]3 z2 |[M:4/4] [EG]2 [EG]>[EG] [Ec]3 [EG] | %5
w: ||
 [EG]2 [DF]2 [G,CE]2 [CEG]2 | [CFA]2 [CFA]2 [CEG][K:bass][G,CE][G,C][A,CD] | %7
w: ||
 [CE]2 [F,B,D]2 [E,C]2 z2 | [Ec]2 [Ec]2 [Ec]2 cd | e2 ed c2 G2 | [Ec]2 [Ec]2 [Ec]2 cd | e2 dc d4 | %12
w: |||||
 [Ge]2 [Ge]2 [Ge]2 [Fd][Ec] | [FA]2 [Ac][FA] [EG]2 E2 | A2 A2 [EG] [Ec]2 [G,CE] | %15
w: |||
 [CE]2 [G,DF][K:bass][F,B,D] [E,C]4 | [Ec]2 [Ec]2 [Ec]2 cd | e2 ed c2 G2 | [Ec]2 [Ec]2 [Ec]2 cd | %19
w: ||||
 e2 dc d4 | [Ge]2 [Ge]2 [Ge]2 [Fd][Ec] | [FA]2 [Ac][FA] [EG]2 E2 | A2 A2 [EG] [Ec]2 [G,CE] | %23
w: ||||
 [CE]2 [G,DF][K:bass][F,B,D] [E,C]4 |] %24
w: |
V:2
 [C,C]2 [C,C]>[C,C] [C,G,]3 [C,G,] | [G,,G,]2 [G,,G,]2 [C,G,]2 [C,C]2 | %2
 [G,CE]2 [G,D][G,C] [G,,G,][G,,G,][G,,G,][G,,G,] | %3
[M:11/8] [C,G,]-[C,G,]-[C,G,]-[C,G,]-[C,G,]-[C,G,]- [C,G,]3 z2 | %4
[M:4/4] [C,C]2 [C,C]>[C,C] [C,G,]3 [C,G,] | [G,,G,]2 [G,,G,]2 C,2 C,2 | F,2 F,2 C,C,E,F, | %7
 G,2 G,,2 C,2 z2 | [C,G,]2 [C,G,]2 [C,G,]2[K:treble] [CE][CF] | [CG]2 [CG][CF] [CE]2 [CE]2 | %10
 [C,G,]2 [C,G,]2 [C,G,]2[K:treble] [CE][CF] | [CG]2 [B,DG][B,D^F] [G,B,G]4 | %12
 [C,C]2 [C,C]2 [C,C]2 [C,G,][C,C] | [F,C]2 [F,C][F,C] [C,C]2 [C,C]2 | %14
 [F,CF]2 [F,CF]2 [C,C] [C,G,]2 E, | G,2 G,,G,, C,4 | [C,G,]2 [C,G,]2 [C,G,]2[K:treble] [CE][CF] | %17
 [CG]2 [CG][CF] [CE]2 [CE]2 | [C,G,]2 [C,G,]2 [C,G,]2[K:treble] [CE][CF] | %19
 [CG]2 [B,DG][B,D^F] [G,B,G]4 | [C,C]2 [C,C]2 [C,C]2 [C,G,][C,C] | %21
 [F,C]2 [F,C][F,C] [C,C]2 [C,C]2 | [F,CF]2 [F,CF]2 [C,C] [C,G,]2 E, | G,2 G,,G,, C,4 |] %24

